X:1
T:O Saviour of the world - Goss
T:#
%%score [ ( 1 2 ) 3 4 ( 5 6 ) ]
L:1/8
Q:1/4=80
M:4/4
K:Ab
V:1 treble nm="Soprano" snm="S"
V:2 treble 
V:3 treble nm="Alto" snm="A"
V:4 treble-8 nm="Tenor" snm="T"
V:5 bass nm="Bass" snm="B"
V:6 bass 
V:1
!mp! z4 !>!c4 | B2"^O Saviour of the world" A2 G2 F2 | E4 !>!e4 | d2 c2 B2 A2 | %4
w: O|Sa- viour of the|world, O|Sa- viour of the|
 G4 A2 A"^John Goss\n(1800-1880)"A | c3 A A2 A2 |[M:4/4] c4 B2 F2 | A6 G2 | A4 c2 cc | f4 c2 z2 | %10
w: world, who by thy|cross and pre- cious|blood hast re-|deem- ed|us, Save us, and|help us,|
 z4 c2 cc | f4 c2 z2 | z4"^cresc." e4 | d2 c2 B2 A2 | G4 !>!e4 | A2 G2 F2 E2 | =D4!mf! =d4 | %17
w: Save us, and|help us,|O|Sa- viour of the|world, O|Sa- viour of the|world, O|
 e2 e2"^cresc." e2 ee | e3 e e2 e2 |!f! e4!>(! =d2 c2!>)! | c3 B B2 z2 |!p! A4 G2 G2 | c4 F2 F2 | %23
w: Sa- viour, who by thy|cross and pre- cious|blood hast re-|deem- ed us,|Save us, and|help us, we|
 B2 AG G2 FE | E4 z2 e2 | e2 cA G2 FE |!p! E4 z4 | z8 | z4!p! !>!c4 | B2 A2 G2 F2 | E4 !>!e4 | %31
w: hum- bly be- seech Thee, O|Lord, we|hum- bly be- seech Thee, O|Lord.||O|Sa- viour of the|world, O|
!<(! d2 c2 B2 A2!<)! | G4 c4 | c2 F2"^cresc." c2 cc | d3 d d2 d2 |!f! d4 e2 e2 | f6 f2 | f4 z4 | %38
w: Sa- viour of the|world, O|Sa- viour, who by thy|cross and pre- cious|blood hast re-|deem- ed|us,|
!p!!>(! d4 c2 B2!>)! | A4 G2 F2 | F2 EE G2 FE | E4 e4 | d2 c2 B2 A2 | G2!pp! !>!_F4 FF | %44
w: Save us, and|help us, we|hum- bly be- seech thee, O|Lord, O|Sa- viour of the|world, save us, and|
 _F2 E2 z2!p! E2 | c2 BB d2 GG |!<(! A8-!<)! | A4!>(! A4 | A8!>)! |] %49
w: help us, we|hum- bly be- seech thee, O|Lord.|* A-|men.|
V:2
 x8 | x8 | x8 | x8 | x8 | x8 |[M:4/4] x8 | x8 | x8 | x8 | x8 | x8 | x8 | x8 | x8 | x8 | x8 | x8 | %18
 x8 | x8 | x8 | x8 | x8 | x8 | x8 | x8 | E8- | E8 | E8 | x8 | x8 | x8 | x8 | x8 | x8 | x8 | x8 | %37
 x8 | x8 | x8 | x8 | x8 | x8 | x2 [B,D]4 [B,D]2 | [B,D]4 x4 | x8 | x8 | x8 | x8 |] %49
V:3
!mp! z4 !>!E4 | D2 D2 D2 D2 | C4 (!>!A3 G) | F2 F2 F2 F2 | E4 C2 CC | =E3 E E2 E2 | %6
w: O|Sa- viour of the|world, O *|Sa- viour of the|world, who by thy|cross and pre- cious|
[M:4/4] F4 F2 F2 | E4 D4 | C4 z4 | z4 F2 FF |!>(! A4 G2!>)! z2 | z4"^cresc." F2 FF | A4 _G2 G2 | %13
w: blood hast re-|deem- ed|us,|Save us, and|help us,|Save us, and|help us, O|
 F2 E2 D2 C2 | B,4 !>!=G4 | C2 C2 C2 C2 | B,4!mf! F4 | _G2 E2"^cresc." E2 EE | _G3 E E2 E2 | %19
w: Sa- viour of the|world, O|Sa- viour of the|world, O|Sa- viour, who by thy|cross and pre- cious|
!f! _G4!>(! G2 G2!>)! | F3 F F2 z2 |!p! F4 E2 E2 | E4 E2 E2 | E2 EE =D2 DE | E4 !>!_D4 | %25
w: blood hast re-|deem- ed us,|Save us, and|help us, we|hum- bly be- seech Thee, O|Lord, we|
 C2 AF E2 =DE | E4 z4 | z8 | z4!p! !>!E4 | D2 C2 B,2 G,2 | A,4 !>!E4 |!<(! F2 E2 D2 C2!<)! | %32
w: hum- bly be- seech Thee, O|Lord.||O|Sa- viour of the|world, O|Sa- viour of the|
 B,4 G4 | A2 A2"^cresc." F2 FF | F3 F F2 F2 |!f! B4 B2 B2 | (B4 =A2) =G2 | =A4!p! F4- | %38
w: world, O|Sa- viour, who by thy|cross and pre- cious|blood hast re-|deem\- * ed|us, Save|
 F4!>(! F2 F2!>)! | E4 D2 D2 | D2 DD D2 DD | C4 C4 | D8 | D2!pp! !>!_F4 FF | _F2 E2 z2!p! E2 | %45
w: * us, and|help us, we|hum- bly be- seech thee, O|Lord, O|save|us, save us, and|help us, we|
 D2 DD D2 DD |!<(! C4 F4!<)! | E4!>(! D4 | C8!>)! |] %49
w: hum- bly be- seech thee, O|Lord. A-|men, A-|men.|
V:4
!mp! z4 !>!E4 | E2 E2 E2 (FG) | A4 !>!A4 | A2 e2 d2 c2 | B4 A2 AA | A3 A A2 A2 | %6
w: O|Sa- viour of the *|world, O|Sa- viour of the|world, who by thy|cross and pre- cious|
[M:4/4][K:treble-8] A4 d2 d2 | c4 B4 | A4 z4 | z4 A2 AA |!>(! c4 B2!>)! z2 | z4"^cresc." A2 AA | %12
w: blood hast re-|deem- ed|us,|Save us, and|help us,|Save us, and|
 c8 | d2 z2 !>!f4 | e2 d2 c2 B2 | (A2 B2) A2 G2 | F4!mf! B4 | B2 B2"^cresc." B2 BB | _c3 c c2 c2 | %19
w: help|us, O|Sa- viour of the|world, * of the|world, O|Sa- viour, who by thy|cross and pre- cious|
!f! =c4!>(! =d2 e2!>)! | e3 =d d2 z2 |!p! =B4 c2 c2 | F4 F2 F2 | G2 cB A2 AA | G2 E2 E2 EE | %25
w: blood hast re-|deem- ed us,|Save us, and|help us, we|hum- bly be- seech Thee, O|Lord, we hum- bly be-|
 E2 Ec B2 AG | G4 z4 | G2 [FA]2 [GB]2 [Ac]2 | [Bd]4 z4 | z4!p! !>!d4 | c2 B2 A2 G2 | F4 f4 | %32
w: seech Thee, be- seech Thee, O|Lord.|||O|Sa- viour of the|world, O|
 e2 d2 c2 B2 | A4"^cresc." A2 AA | A3 A A2 A2 |!f! B4 B2 B2 | (d4 c2) B2 | c4 z4 | %38
w: Sa- viour of the|world, who by thy|cross and pre- cious|blood hast re-|deem\- * ed|us,|
!p! B4!>(! e2 d2!>)! | c4 B2 A2 | G2 GG G2 GG | A4 A4 | A8 | B2!pp! !>!_F4 FF | _F2 E2 z2!p! E2 | %45
w: Save us, and|help us, we|hum- bly be- seech thee, O|Lord, O|save|us, save us, and|help us, we|
 G2 GG G2 BB |!<(! A4 d4!<)! | c4!>(! F4 | E8!>)! |] %49
w: hum- bly be- seech thee, O|Lord. A-|men, A-|men.|
V:5
!mp! A,,4 !>!A,,4 | B,,2 B,,2 B,,2 B,,2 | C,4 !>!C,4 | D,2 D,2 D,2 D,2 | E,4 F,2 F,F, | %5
w: * O|Sa- viour of the|world, O|Sa- viour of the|world, who by thy|
 C,3 C, C,2 C,2 |[M:4/4] D,4 D,2 D,2 | E,4 E,4 | A,,4 z4 | z4 F,2 F,F, |!>(! =E,4 E,2!>)! z2 | %11
w: cross and pre- cious|blood hast re-|deem- ed|us,|Save us, and|help us,|
 z4"^cresc." F,2 F,F, | _E,4 A,,4 | D,8 | E,6 E,2 | F,2 F,2 A,,2 A,,2 | B,,4!mf! A,4 | %17
w: Save us, and|help us,|help|us, O|Sa- viour of the|world, O|
 _G,2 G,2"^cresc." G,2 G,G, | A,3 A, A,2 A,2 |!f! =A,4!>(! A,2 A,2!>)! | B,3 B, B,2 z2 | z8 | %22
w: Sa- viour, who by thy|cross and pre- cious|blood hast re-|deem- ed us,||
!p! A,,4 A,,2 A,,2 | B,,2 B,,B,, B,,2 B,,B,, | C,4 G,,4 | A,,2 A,,A,, B,,2 B,,B,, | E,4 E,4 | %27
w: help us, we|hum- bly be- seech Thee, O|Lord, we|hum- bly be- seech Thee, O|Lord. O|
 _D,2 C,2 B,,2 A,,2 | G,,4!p! !>!A,,4 | B,,8 | C,4 C,4 | D,8 | E,4 =E,4 | %33
w: Sa- viour of the|world, O|save|us, and|help|us, O|
 F,2 F,2"^cresc." F,2 F,F, | D,3 D, D,2 D,2 |!f! _G,4 G,2 G,2 | F,6 F,2 | F,4 z4 | %38
w: Sa- viour, who by thy|cross and pre- cious|blood hast re-|deem- ed|us,|
!p! B,,4!>(! C,2 D,2!>)! | E,4 E,2 E,2 | E,2 E,E, E,2 E,E, | A,,4 _G,4 | (F,4 _F,4) | %43
w: Save us, and|help us, we|hum- bly be- seech thee, O|Lord, O|save *|
 E,2!pp! !>!_F,4 F,F, | _F,2 E,2 z2!p! E,2 | E,2 E,E, E,2 E,E, |!<(! A,,8-!<)! | A,,4!>(! D,4 | %48
w: us, save us, and|help us, we|hum- bly be- seech thee, O|Lord.|* A-|
 A,,8!>)! |] %49
w: men.|
V:6
 x8 | x8 | x8 | x8 | x8 | x8 |[M:4/4] x8 | x8 | x8 | x8 | x8 | x8 | x8 | x8 | x8 | x8 | x8 | %17
 _G,,8 | A,,8 | =A,,8 | B,,6 x2 | x8 | x8 | x8 | x8 | x8 | E,,4 x4 | E,4 E,4 | E,4 x4 | x8 | x8 | %31
 x8 | x8 | x4 F,,4 | D,,8 | _G,,8 | F,,8- | F,,4 x4 | x8 | x8 | E,,8 | x8 | x8 | x2 A,,4 A,,2 | %44
 G,,4 x4 | E,,8 | x8 | x4 D,,4 | x8 |] %49

